static/logos/patreon-wordmark-color.svg

<svg width="100" height="14" viewBox="0 0 100 14" fill="none" xmlns="http://www.w3.org/2000/svg">
<g clip-path="url(#clip0_1_1740)">
<path fill-rule="evenodd" clip-rule="evenodd" d="M76.0872 0.0255269C74.7892 0.179937 73.8446 0.512204 72.8764 1.15492C71.49 2.0753 70.5127 3.51333 70.1051 5.2324C69.9511 5.88204 69.9321 6.06984 69.9323 6.93771C69.9326 7.69555 69.9365 7.75913 70.0076 8.16163C70.1422 8.9227 70.3458 9.54053 70.6841 10.2151C71.0061 10.8569 71.3728 11.362 71.9039 11.8953C72.9892 12.9851 74.2834 13.5998 75.948 13.8162C76.3479 13.8682 77.3839 13.8754 77.7658 13.8289C78.5812 13.7295 79.2426 13.5558 79.8841 13.2727C81.1725 12.704 82.182 11.8086 82.8967 10.6001C84.234 8.34109 84.206 5.37034 82.8279 3.14207C81.7352 1.3753 79.971 0.287424 77.7927 0.036478C77.4183 -0.00663417 76.4119 -0.0131089 76.0872 0.0255269ZM0.0724602 0.334107C0.0626813 0.343859 0.0546875 3.31748 0.0546875 6.94215V13.5325H1.58679H3.1189V11.7072V9.88201L4.29796 9.88177C5.676 9.88153 6.21283 9.8546 6.66125 9.76347C7.96489 9.49848 9.04967 8.73581 9.72601 7.60869C10.0007 7.15094 10.1932 6.63197 10.3194 6.00965C10.3722 5.74916 10.3796 5.63389 10.3786 5.08585C10.3776 4.50637 10.372 4.43387 10.304 4.11329C9.98972 2.6312 9.13225 1.48681 7.85634 0.846523C7.26665 0.5506 6.70608 0.4012 5.97129 0.344152C5.57715 0.313564 0.10233 0.304211 0.0724602 0.334107ZM17.7085 0.669385C17.6398 0.863549 17.5549 1.10038 17.52 1.19563C17.4615 1.3554 15.1762 7.75161 15.0163 8.20336C14.9774 8.31327 14.9171 8.48113 14.8822 8.57642C14.8179 8.75236 14.0371 10.9416 13.9184 11.2786C13.8828 11.3799 13.7091 11.8655 13.5326 12.3577C13.356 12.85 13.1895 13.3156 13.1626 13.3926L13.1138 13.5325H14.7462H16.3788L16.5459 13.0062C16.6379 12.7168 16.7517 12.36 16.799 12.2135L16.8849 11.947H19.2369H21.5888L21.7037 12.3067C21.7669 12.5046 21.8805 12.8613 21.9561 13.0994L22.0937 13.5325H23.7568H25.4199L25.3944 13.4725C25.3803 13.4395 25.2658 13.1248 25.1401 12.7731C25.0143 12.4213 24.8591 11.9897 24.7952 11.8138C24.664 11.4525 24.1819 10.1195 24.0003 9.61559C23.9342 9.43237 23.7282 8.86283 23.5426 8.34988C23.3569 7.83699 23.0968 7.11756 22.9643 6.75118C22.8319 6.38481 22.5753 5.67514 22.394 5.17416C21.7053 3.27085 21.0396 1.42784 20.8438 0.88255L20.6406 0.316334H19.237H17.8335L17.7085 0.669385ZM27.5649 0.349561C27.5579 0.367919 27.5553 0.964484 27.5591 1.67524L27.566 2.96755L29.0515 2.97442L30.537 2.98132V8.25683V13.5325H32.0691H33.6012V8.25683V2.98132L35.1 2.97442L36.5988 2.96755V1.6486V0.329657L32.0883 0.322915C28.4939 0.31756 27.5751 0.322969 27.5649 0.349561ZM41.3549 6.92438V13.5325H42.8737H44.3925V11.7072V9.88201L45.1187 9.88225L45.8447 9.88241L46.9772 11.6565C47.6 12.6323 48.1275 13.4538 48.1495 13.482C48.1884 13.5321 48.238 13.5333 49.9551 13.5263L51.7207 13.5191L50.4039 11.4416L49.087 9.36395L49.298 9.25132C49.6832 9.0454 49.991 8.81399 50.3366 8.47018C51.0319 7.77847 51.4326 7.00919 51.6328 5.98124C51.6932 5.67098 51.7005 4.56549 51.644 4.27317C51.5342 3.70469 51.4216 3.36413 51.1859 2.88761C50.5274 1.55659 49.3586 0.692034 47.8366 0.410233C47.3984 0.329124 46.8943 0.316334 44.1341 0.316334H41.3549V6.92438ZM56.8892 6.92438V13.5325H60.9127H64.9361V12.3067V11.0811H62.4448H59.9534V9.62886V8.17674H62.4448H64.9361V6.97767V5.77863H62.4446H59.9529L59.9599 4.27983L59.9668 2.78103L62.4514 2.77424L64.9361 2.76744V1.54189V0.316334H60.9127H56.8892V6.92438ZM88.9558 0.349428C88.9486 0.367866 88.9462 3.33858 88.9502 6.95102L88.9566 13.5191L90.4826 13.526L92.0078 13.5329L92.0142 9.29688L92.0214 5.06091L93.3803 7.48771C94.1277 8.82246 94.9191 10.2352 95.1389 10.6272C95.3587 11.0192 95.8143 11.833 96.1509 12.4357L96.764 13.5317L98.3563 13.5321L99.9478 13.5325V6.92438V0.316334H98.429H96.9111L96.9039 4.60314L96.8975 8.88993L96.0981 7.44924C95.6585 6.65683 94.5889 4.73078 93.7224 3.16909L92.1461 0.329657L90.5577 0.322783C89.3003 0.317347 88.9662 0.322916 88.9558 0.349428ZM77.6757 2.8198C78.9598 3.09107 79.9662 3.96837 80.4578 5.245C80.8615 6.29209 80.8687 7.50314 80.4778 8.54972C79.8782 10.158 78.5505 11.1081 76.9039 11.1076C75.4135 11.1072 74.178 10.3342 73.5185 8.98937C72.9756 7.88239 72.8903 6.63807 73.2764 5.45636C73.374 5.15761 73.5684 4.73432 73.7176 4.49552C73.8593 4.26874 74.1259 3.94866 74.347 3.73946C74.9186 3.19888 75.5917 2.88351 76.4203 2.76816C76.6976 2.72955 77.3817 2.75769 77.6757 2.8198ZM5.77012 2.89107C6.15853 3.00557 6.42416 3.16912 6.7027 3.46528C7.12165 3.91066 7.31621 4.43491 7.31411 5.11249C7.31241 5.66043 7.18914 6.07512 6.90222 6.4983C6.71261 6.77794 6.3711 7.06917 6.08368 7.19632C5.71109 7.36113 5.71619 7.36059 4.36457 7.37082L3.1189 7.38026V5.09938V2.81852L4.35125 2.82731C5.50352 2.83552 5.59572 2.83965 5.77012 2.89107ZM47.0438 2.88244C47.6136 3.04524 48.0868 3.44269 48.3504 3.98007C48.5463 4.3793 48.5866 4.57029 48.5866 5.09918C48.5866 5.62763 48.5465 5.8182 48.3508 6.21828C48.1425 6.64439 47.83 6.96113 47.4168 7.16504C47.0179 7.36187 47.0299 7.36049 45.6382 7.37093L44.3925 7.38026V5.09918V2.81809L45.6382 2.82742C46.7158 2.83549 46.9055 2.84293 47.0438 2.88244ZM20.0266 6.77783C20.4456 8.21399 20.795 9.42206 20.8032 9.46235L20.8181 9.53565H19.2294C18.0378 9.53565 17.6406 9.5279 17.6406 9.50456C17.6406 9.48753 17.7237 9.19672 17.8253 8.85843C17.9268 8.52014 18.1134 7.8956 18.2398 7.47061C18.3663 7.04562 18.5043 6.58399 18.5466 6.44476C18.589 6.30554 18.7569 5.74199 18.9199 5.19243C19.2521 4.07194 19.242 4.10349 19.2552 4.13994C19.2605 4.1546 19.6076 5.34165 20.0266 6.77783Z" fill="#FF424D"/>
</g>
<defs>
<clipPath id="clip0_1_1740">
<rect width="100" height="13.9089" fill="white"/>
</clipPath>
</defs>
</svg>

<svg xmlns="http://www.w3.org/2000/svg" width="457.143" height="64" fill="none" viewBox="0 0 100 14"><g clip-path="url(#a)"><path fill="#FF424D" fill-rule="evenodd" d="M76.087.026c-1.298.154-2.242.486-3.21 1.129-1.387.92-2.364 2.358-2.772 4.077-.154.65-.173.838-.173 1.706 0 .758.004.821.076 1.224.134.76.338 1.379.676 2.053a6.211 6.211 0 0 0 1.22 1.68c1.085 1.09 2.38 1.705 4.044 1.921.4.052 1.436.06 1.818.013.815-.1 1.477-.273 2.118-.556a6.452 6.452 0 0 0 3.013-2.673c1.337-2.259 1.309-5.23-.07-7.458C81.736 1.375 79.972.287 77.794.036c-.375-.043-1.381-.05-1.706-.01ZM.072.334C.062.344.055 3.317.055 6.942v6.59h3.064v-3.65h1.179c1.378 0 1.915-.027 2.363-.119A4.589 4.589 0 0 0 9.726 7.61c.275-.458.467-.977.593-1.6.053-.26.06-.375.06-.923-.001-.58-.007-.652-.075-.973C9.99 2.631 9.132 1.487 7.856.847 7.266.55 6.706.4 5.971.344 5.577.314.102.304.072.334ZM17.71.67l-.189.527a6711.658 6711.658 0 0 0-3.602 10.083l-.385 1.079c-.177.492-.343.958-.37 1.035l-.05.14h3.266l.167-.527.253-.793.086-.266h4.704l.115.36.252.792.138.434h3.326l-.026-.06a40.597 40.597 0 0 1-.254-.7c-.126-.352-.28-.783-.345-.96a1652.091 1652.091 0 0 1-1.252-3.463l-.579-1.599-.57-1.577c-.689-1.903-1.354-3.746-1.55-4.291L20.64.316h-2.807l-.125.353Zm9.856-.32c-.007.019-.01.615-.006 1.326l.007 1.293 1.486.006 1.485.007v10.552h3.064V2.98l1.499-.007 1.499-.006V.33l-4.51-.007c-3.595-.005-4.514 0-4.524.027Zm13.79 6.575v6.609h3.037V9.882H45.846l1.132 1.774c.623.976 1.15 1.798 1.173 1.826.038.05.088.051 1.805.044l1.766-.007-1.317-2.077-1.317-2.078.211-.113a4.223 4.223 0 0 0 1.039-.78c.695-.693 1.096-1.462 1.296-2.49.06-.31.067-1.416.011-1.708a4.808 4.808 0 0 0-.458-1.385C50.527 1.557 49.359.692 47.836.41c-.438-.08-.942-.094-3.702-.094h-2.78v6.608Zm15.534 0v6.609h8.047V11.08H59.953V8.177H64.936V5.779H59.953l.007-1.5.007-1.498 2.484-.007 2.485-.007V.316H56.89v6.608ZM88.956.35c-.007.019-.01 2.99-.006 6.602l.007 6.568 1.526.007 1.525.007.006-4.236.007-4.236 1.36 2.427a9667.319 9667.319 0 0 0 2.77 4.948l.613 1.096h3.184V.317H96.91l-.007 4.287-.007 4.287-.799-1.44-2.376-4.28L92.146.33 90.558.323c-1.258-.006-1.592 0-1.602.026Zm-11.28 2.47c1.284.272 2.29 1.15 2.782 2.426a4.73 4.73 0 0 1 .02 3.305c-.6 1.608-1.927 2.558-3.574 2.558-1.49 0-2.726-.774-3.385-2.119a4.66 4.66 0 0 1-.243-3.533c.098-.298.292-.722.442-.96.141-.227.408-.547.629-.757.572-.54 1.245-.855 2.073-.97.278-.04.962-.011 1.256.05ZM5.77 2.892c.389.115.654.278.933.574.419.446.613.97.611 1.647-.002.548-.125.963-.412 1.386-.19.28-.53.571-.818.698-.373.165-.368.165-1.72.175l-1.245.01V2.818l1.232.008c1.153.009 1.245.013 1.42.064Zm41.274-.009c.57.163 1.043.56 1.306 1.098.196.4.237.59.237 1.12 0 .528-.04.718-.236 1.118a2.01 2.01 0 0 1-.934.947c-.4.197-.387.195-1.779.206l-1.245.01V2.818l1.245.008c1.078.008 1.268.016 1.406.055ZM20.027 6.778c.419 1.436.768 2.644.776 2.684l.015.074H19.23c-1.191 0-1.588-.008-1.588-.031 0-.017.083-.308.184-.647a732.114 732.114 0 0 0 .722-2.413l.373-1.253c.332-1.12.322-1.089.335-1.052.006.015.353 1.202.772 2.638Z" clip-rule="evenodd"/></g><defs><clipPath id="a"><path fill="#fff" d="M0 0h100v13.909H0z"/></clipPath></defs></svg>
